X:136
T:Reel 136
M:4/4
K:Dmaj
L:1/8
D>F (3FDF A>F (3FEF |E>C (3CCC E>G (3GFE |D>F (3FFF A>F (3FEF |GECE G>FECCE|D>F (3FEF A>F (3GFE |D>C (3CB,C D>E (3CDE |DEFD ECCE|D>A, (3DDE F2:|z2|A>D (3DCD A>D (3DCD |A>D (3DDD d2cd|ec (3cBc E>C (3CDE |G>C (3CCC c>C (3EFG |A>F (3FFF A2F (3EDF |GCCE GEGECE|FEFD FGAGFDEC |DCDE DCD2|
